source/img/icon-twitter--green.svg

<svg height="21" viewBox="0 0 24 21" width="24" xmlns="http://www.w3.org/2000/svg"><path d="m23.706 4.855c-.227-.366-.909-.277-1.407-.371h-1.112c.142-.353.343-.646.52-.963.056-.438.254-.734.223-1.26.129-.167.176-.417.296-.593.104-.144.242-.477.074-.667-.051-.221-.295-.249-.593-.222-.088.036-.169.079-.222.148-.448.433-.778 1.014-1.261 1.408-.009.008-.062 0-.074 0-.087.005-.033.046-.075.074-.146.098-.257.152-.369.223-.284.176-.547.445-.891.519-.529-.211-1.156-.326-1.852-.37-1.157.102-2.303.215-3.038.741-.911.35-1.477 1.042-2.149 1.63-.049.32-.342.398-.37.741-.005.045-.012.088-.073.074.043.241-.051.345-.074.519-.001.133.199.431 0 .52-.822-.12-1.485-.63-2.149-.964-.718-.36-1.468-.604-2.074-1.111-.716-.322-1.26-.816-1.778-1.334-.208-.312-.542-.496-.667-.89-.379-.164-.175-.912-.741-.889-.315-.043-.345.199-.444.37-.07.227-.361.232-.371.519-.004.046-.011.088-.074.075-.17 1.089-.527 1.992-.519 3.26.129.415.35.738.593 1.038-.418.051-.716.222-.89.519-.06 1.073.378 1.647.742 2.297.134.384.352.685.593.963.017.229.206.288.296.445.019.105.123.125.149.223-.04.105.289.18.073.221-.413.131-1.016.07-1.259.371-.109.279-.109.833 0 1.111.034.237.282.262.296.519.499.417 1.082.747 1.631 1.112.574.166 1.211.271 1.852.37-.102.343-.338.551-.593.741-.78.381-1.849.474-2.742.74-.555.038-.956.23-1.556.223-.333.127-.854.075-1.112.223-.122.068-.102.096-.222.221-.134.412.111.74.444.89-.005.253.219.276.371.371.089.183.254.29.445.37.544.468 1.268.759 1.927 1.112.83.183 1.648.376 2.52.519.896.116 1.901.124 2.816.222h.963c.511.132 1.23.054 1.853.074.095-.102.322-.073.519-.074.522-.269 1.196-.385 1.631-.74.574-.241.989-.642 1.557-.89.866-.765 1.937-1.324 2.519-2.37.205-.189.351-.438.445-.74.265-.156.385-.454.593-.667.404-.41.706-.924 1.037-1.4.319-.496.576-1.054.89-1.556-.01-.405.306-.484.296-.89.193-.226.177-.662.371-.88-.033-.255.029-.415.074-.594.047-1.281-.047-2.422-.297-3.407.588-.155 1.181-.302 1.631-.593.52-.206.993-.603.808-1.281zm-3.408 4.076c-.153.859-.615 1.41-1.038 2.001.059.379-.104.538-.073.889-.158.312-.287.652-.371 1.037-.203.267-.332.606-.519.89-.366.548-.777 1.051-1.186 1.557-.378.56-.912.965-1.334 1.481-.42.493-.942.885-1.407 1.334-.474.17-.89.396-1.26.667-.232.09-.463.18-.667.296-.177.146-.499.145-.668.29-1.086.147-2.3.17-3.555.148-1.031-.105-2.115-.159-3.039-.371-.922-.189-1.511-.712-2.297-1.037.153-.242.634-.154.963-.222.031-.166.394-.003.444-.149.257.06.285-.109.52-.07.563-.201 1.23-.302 1.705-.593.282-.138.406-.434.667-.593.033-.189.104-.341.222-.444.047-.275.201-.441.148-.815.111-.21.299-.343.296-.667-.074-.147-.128-.316-.296-.371-.026-.196-.377-.067-.444-.222-.255.032-.416-.029-.593-.075-.154-.043-.487.092-.519-.073-.842-.023-1.3-.43-1.853-.74.431-.262 1.032-.353 1.333-.742.516-.076 1.058-.129 1.112-.666 0-.717-.771-.661-1.333-.815-.773-.66-1.194-1.672-1.779-2.52.238-.157.564-.226.741-.444.454.058.54-.251.667-.52.019-.488-.333-.605-.593-.815-.259-.21-.475-.462-.667-.74-.003-.818-.021-1.652.074-2.372.063-.014.07.029.074.074.227.441.559.775.815 1.186.532.357.925.853 1.556 1.112.452.413 1.108.621 1.557 1.038.601.263 1.158.57 1.704.889.669.194 1.056.673 2.001.593.198-.098.394-.199.593-.297.258-.456-.059-1.079.147-1.63.255-.659.797-1.031 1.26-1.481.29-.155.555-.335.815-.519.347-.098.675-.216.964-.37.376-.019.713-.077 1.037-.148h1.26c.244.052.475.119.74.148.209.137.38.313.666.371.789.693 1.271 1.696 1.409 3.039-.122.484.053.873.001 1.481zm.296-5.632c-.129.34-.23.707-.593.815-.017-.105-.122-.125-.147-.222-.012-.209.209-.186.296-.296.162-.085.245-.248.444-.297-.007-.09.108-.046 0 0zm-5.484 3.038c.163.135.284.31.519.371.101.221.314.327.594.37.047-.15.346-.049.37-.222.174-.023.166-.229.296-.297-.018-.55-.129-1.006-.37-1.333-.758-.423-1.676.039-1.409 1.111z" fill="#46c1ae" fill-rule="evenodd"/></svg>

<?xml version="1.0" encoding="UTF-8"?>
<svg width="24px" height="21px" viewBox="0 0 24 21" version="1.1" xmlns="http://www.w3.org/2000/svg" xmlns:xlink="http://www.w3.org/1999/xlink">
    <!-- Generator: Sketch 52.2 (67145) - http://www.bohemiancoding.com/sketch -->
    <title>Shape</title>
    <desc>Created with Sketch.</desc>
    <g id="Symbols" stroke="none" stroke-width="1" fill="none" fill-rule="evenodd">
        <g id="icon-twitter-color" fill="#46C1AE">
            <path d="M23.706,4.855 C23.479,4.489 22.797,4.578 22.299,4.484 L21.187,4.484 C21.329,4.131 21.53,3.838 21.707,3.521 C21.763,3.083 21.961,2.787 21.93,2.261 C22.059,2.094 22.106,1.844 22.226,1.668 C22.33,1.524 22.468,1.191 22.3,1.001 C22.249,0.78 22.005,0.752 21.707,0.779 C21.619,0.815 21.538,0.858 21.485,0.927 C21.037,1.36 20.707,1.941 20.224,2.335 C20.215,2.343 20.162,2.335 20.15,2.335 C20.063,2.34 20.117,2.381 20.075,2.409 C19.929,2.507 19.818,2.561 19.706,2.632 C19.422,2.808 19.159,3.077 18.815,3.151 C18.286,2.94 17.659,2.825 16.963,2.781 C15.806,2.883 14.66,2.996 13.925,3.522 C13.014,3.872 12.448,4.564 11.776,5.152 C11.727,5.472 11.434,5.55 11.406,5.893 C11.401,5.938 11.394,5.981 11.333,5.967 C11.376,6.208 11.282,6.312 11.259,6.486 C11.258,6.619 11.458,6.917 11.259,7.006 C10.437,6.886 9.774,6.376 9.11,6.042 C8.392,5.682 7.642,5.438 7.036,4.931 C6.32,4.609 5.776,4.115 5.258,3.597 C5.05,3.285 4.716,3.101 4.591,2.707 C4.212,2.543 4.416,1.795 3.85,1.818 C3.535,1.775 3.505,2.017 3.406,2.188 C3.336,2.415 3.045,2.42 3.035,2.707 C3.031,2.753 3.024,2.795 2.961,2.782 C2.791,3.871 2.434,4.774 2.442,6.042 C2.571,6.457 2.792,6.78 3.035,7.08 C2.617,7.131 2.319,7.302 2.145,7.599 C2.085,8.672 2.523,9.246 2.887,9.896 C3.021,10.28 3.239,10.581 3.48,10.859 C3.497,11.088 3.686,11.147 3.776,11.304 C3.795,11.409 3.899,11.429 3.925,11.527 C3.885,11.632 4.214,11.707 3.998,11.748 C3.585,11.879 2.982,11.818 2.739,12.119 C2.63,12.398 2.63,12.952 2.739,13.23 C2.773,13.467 3.021,13.492 3.035,13.749 C3.534,14.166 4.117,14.496 4.666,14.861 C5.24,15.027 5.877,15.132 6.518,15.231 C6.416,15.574 6.18,15.782 5.925,15.972 C5.145,16.353 4.076,16.446 3.183,16.712 C2.628,16.75 2.227,16.942 1.627,16.935 C1.294,17.062 0.773,17.01 0.515,17.158 C0.393,17.226 0.413,17.254 0.293,17.379 C0.159,17.791 0.404,18.119 0.737,18.269 C0.732,18.522 0.956,18.545 1.108,18.64 C1.197,18.823 1.362,18.93 1.553,19.01 C2.097,19.478 2.821,19.769 3.48,20.122 C4.31,20.305 5.128,20.498 6,20.641 C6.896,20.757 7.901,20.765 8.816,20.863 L9.779,20.863 C10.29,20.995 11.009,20.917 11.632,20.937 C11.727,20.835 11.954,20.864 12.151,20.863 C12.673,20.594 13.347,20.478 13.782,20.123 C14.356,19.882 14.771,19.481 15.339,19.233 C16.205,18.468 17.276,17.909 17.858,16.863 C18.063,16.674 18.209,16.425 18.303,16.123 C18.568,15.967 18.688,15.669 18.896,15.456 C19.3,15.046 19.602,14.532 19.933,14.056 C20.252,13.56 20.509,13.002 20.823,12.5 C20.813,12.095 21.129,12.016 21.119,11.61 C21.312,11.384 21.296,10.948 21.49,10.73 C21.457,10.475 21.519,10.315 21.564,10.136 C21.611,8.855 21.517,7.714 21.267,6.729 C21.855,6.574 22.448,6.427 22.898,6.136 C23.418,5.93 23.891,5.533 23.706,4.855 Z M20.298,8.931 C20.145,9.79 19.683,10.341 19.26,10.932 C19.319,11.311 19.156,11.47 19.187,11.821 C19.029,12.133 18.9,12.473 18.816,12.858 C18.613,13.125 18.484,13.464 18.297,13.748 C17.931,14.296 17.52,14.799 17.111,15.305 C16.733,15.865 16.199,16.27 15.777,16.786 C15.357,17.279 14.835,17.671 14.37,18.12 C13.896,18.29 13.48,18.516 13.11,18.787 C12.878,18.877 12.647,18.967 12.443,19.083 C12.266,19.229 11.944,19.228 11.775,19.373 C10.689,19.52 9.475,19.543 8.22,19.521 C7.189,19.416 6.105,19.362 5.181,19.15 C4.259,18.961 3.67,18.438 2.884,18.113 C3.037,17.871 3.518,17.959 3.847,17.891 C3.878,17.725 4.241,17.888 4.291,17.742 C4.548,17.802 4.576,17.633 4.811,17.672 C5.374,17.471 6.041,17.37 6.516,17.079 C6.798,16.941 6.922,16.645 7.183,16.486 C7.216,16.297 7.287,16.145 7.405,16.042 C7.452,15.767 7.606,15.601 7.553,15.227 C7.664,15.017 7.852,14.884 7.849,14.56 C7.775,14.413 7.721,14.244 7.553,14.189 C7.527,13.993 7.176,14.122 7.109,13.967 C6.854,13.999 6.693,13.938 6.516,13.892 C6.362,13.849 6.029,13.984 5.997,13.819 C5.155,13.796 4.697,13.389 4.144,13.079 C4.575,12.817 5.176,12.726 5.477,12.337 C5.993,12.261 6.535,12.208 6.589,11.671 C6.589,10.954 5.818,11.01 5.256,10.856 C4.483,10.196 4.062,9.184 3.477,8.336 C3.715,8.179 4.041,8.11 4.218,7.892 C4.672,7.95 4.758,7.641 4.885,7.372 C4.904,6.884 4.552,6.767 4.292,6.557 C4.033,6.347 3.817,6.095 3.625,5.817 C3.622,4.999 3.604,4.165 3.699,3.445 C3.762,3.431 3.769,3.474 3.773,3.519 C4,3.96 4.332,4.294 4.588,4.705 C5.12,5.062 5.513,5.558 6.144,5.817 C6.596,6.23 7.252,6.438 7.701,6.855 C8.302,7.118 8.859,7.425 9.405,7.744 C10.074,7.938 10.461,8.417 11.406,8.337 C11.604,8.239 11.8,8.138 11.999,8.04 C12.257,7.584 11.94,6.961 12.146,6.41 C12.401,5.751 12.943,5.379 13.406,4.929 C13.696,4.774 13.961,4.594 14.221,4.41 C14.568,4.312 14.896,4.194 15.185,4.04 C15.561,4.021 15.898,3.963 16.222,3.892 L17.482,3.892 C17.726,3.944 17.957,4.011 18.222,4.04 C18.431,4.177 18.602,4.353 18.888,4.411 C19.677,5.104 20.159,6.107 20.297,7.45 C20.175,7.934 20.35,8.323 20.298,8.931 Z M20.594,3.299 C20.465,3.639 20.364,4.006 20.001,4.114 C19.984,4.009 19.879,3.989 19.854,3.892 C19.842,3.683 20.063,3.706 20.15,3.596 C20.312,3.511 20.395,3.348 20.594,3.299 C20.587,3.209 20.702,3.253 20.594,3.299 Z M15.11,6.337 C15.273,6.472 15.394,6.647 15.629,6.708 C15.73,6.929 15.943,7.035 16.223,7.078 C16.27,6.928 16.569,7.029 16.593,6.856 C16.767,6.833 16.759,6.627 16.889,6.559 C16.871,6.009 16.76,5.553 16.519,5.226 C15.761,4.803 14.843,5.265 15.11,6.337 Z" id="Shape"></path>
        </g>
    </g>
</svg>
